flaticon/user-interface/browser-26.svg

<svg xmlns="http://www.w3.org/2000/svg" width="32" height="32" viewBox="0 0 24 24">
    <path d="M14.398438 19.199219C14.621094 19.199219 14.800781 19.019531 14.800781 18.800781 14.800781 18.578125 14.621094 18.398438 14.398438 18.398438L9.199219 18.398438C8.980469 18.398438 8.800781 18.578125 8.800781 18.800781 8.800781 19.019531 8.980469 19.199219 9.199219 19.199219zM16.398438 20L7.199219 20C6.980469 20 6.800781 20.179688 6.800781 20.398438 6.800781 20.621094 6.980469 20.800781 7.199219 20.800781L16.398438 20.800781C16.621094 20.800781 16.800781 20.621094 16.800781 20.398438 16.800781 20.179688 16.621094 20 16.398438 20zM2.800781 1.199219C1.917969 1.199219 1.199219 1.917969 1.199219 2.800781 1.199219 3.683594 1.917969 4.398438 2.800781 4.398438 3.683594 4.398438 4.398438 3.683594 4.398438 2.800781 4.398438 1.917969 3.683594 1.199219 2.800781 1.199219zM2.800781 3.601562C2.359375 3.601562 2 3.242188 2 2.800781 2 2.359375 2.359375 2 2.800781 2 3.242188 2 3.601562 2.359375 3.601562 2.800781 3.601562 3.242188 3.242188 3.601562 2.800781 3.601562zM6.398438 1.199219C5.519531 1.199219 4.800781 1.917969 4.800781 2.800781 4.800781 3.683594 5.519531 4.398438 6.398438 4.398438 7.28125 4.398438 8 3.683594 8 2.800781 8 1.917969 7.28125 1.199219 6.398438 1.199219zM6.398438 3.601562C5.957031 3.601562 5.601562 3.242188 5.601562 2.800781 5.601562 2.359375 5.957031 2 6.398438 2 6.839844 2 7.199219 2.359375 7.199219 2.800781 7.199219 3.242188 6.839844 3.601562 6.398438 3.601562zM10 1.199219C9.117188 1.199219 8.398438 1.917969 8.398438 2.800781 8.398438 3.683594 9.117188 4.398438 10 4.398438 10.882812 4.398438 11.601562 3.683594 11.601562 2.800781 11.601562 1.917969 10.882812 1.199219 10 1.199219zM10 3.601562C9.558594 3.601562 9.199219 3.242188 9.199219 2.800781 9.199219 2.359375 9.558594 2 10 2 10.441406 2 10.800781 2.359375 10.800781 2.800781 10.800781 3.242188 10.441406 3.601562 10 3.601562zM10 3.601562"/>
    <path d="M 0 0 L 0 24 L 24 24 L 24 0 Z M 0.800781 0.800781 L 23.199219 0.800781 L 23.199219 4.800781 L 0.800781 4.800781 Z M 23.199219 23.199219 L 0.800781 23.199219 L 0.800781 5.601562 L 23.199219 5.601562 Z M 23.199219 23.199219"/>
    <path d="M 4.832031 13.835938 C 5.042969 15.296875 6.359375 16.398438 7.894531 16.398438 L 16.101562 16.398438 C 17.75 16.398438 19.140625 15.105469 19.199219 13.507812 C 19.230469 12.550781 18.800781 11.628906 18.042969 11.035156 C 18.019531 11.015625 18 10.96875 18 10.917969 L 18 10.519531 C 18 8.625 16.578125 7 14.765625 6.820312 C 13.558594 6.695312 12.378906 7.1875 11.613281 8.132812 C 11.5625 8.191406 11.46875 8.203125 11.402344 8.15625 C 10.871094 7.792969 10.246094 7.601562 9.601562 7.601562 C 7.851562 7.601562 6.425781 9.007812 6.402344 10.75 C 5.289062 11.339844 4.648438 12.570312 4.832031 13.835938 Z M 6.964844 11.367188 L 7.226562 11.226562 L 7.207031 10.941406 C 7.203125 10.894531 7.199219 10.847656 7.199219 10.800781 C 7.199219 9.476562 8.277344 8.398438 9.601562 8.398438 C 10.085938 8.398438 10.550781 8.542969 10.949219 8.816406 C 11.359375 9.097656 11.921875 9.015625 12.230469 8.636719 C 12.828125 7.902344 13.746094 7.519531 14.683594 7.613281 C 16.09375 7.753906 17.199219 9.03125 17.199219 10.519531 L 17.199219 10.917969 C 17.199219 11.21875 17.328125 11.492188 17.554688 11.667969 C 18.117188 12.109375 18.425781 12.769531 18.398438 13.480469 C 18.355469 14.648438 17.328125 15.601562 16.101562 15.601562 L 7.894531 15.601562 C 6.753906 15.601562 5.777344 14.792969 5.625 13.722656 C 5.480469 12.722656 6.03125 11.753906 6.964844 11.367188 Z M 6.964844 11.367188"/>
</svg>

<svg xmlns="http://www.w3.org/2000/svg" width="32" height="32" viewBox="0 0 24 24">
    <path d="M14.398 19.2a.401.401 0 1 0 0-.802H9.2a.401.401 0 0 0 0 .801zm0 0M16.398 20H7.2a.4.4 0 0 0 0 .8h9.2a.401.401 0 0 0 0-.8zm0 0M2.8 1.2c-.882 0-1.6.718-1.6 1.6a1.6 1.6 0 1 0 1.6-1.6zm0 2.402A.802.802 0 0 1 2.8 2a.802.802 0 0 1 0 1.602zm0 0M6.398 1.2A1.6 1.6 0 1 0 8 2.801c0-.884-.719-1.603-1.602-1.603zm0 2.402a.799.799 0 0 1-.796-.801.799.799 0 1 1 1.597 0c0 .441-.36.8-.8.8zm0 0M10 1.2c-.883 0-1.602.718-1.602 1.6A1.6 1.6 0 0 0 10 4.399a1.6 1.6 0 0 0 1.602-1.597c0-.883-.72-1.602-1.602-1.602zm0 2.402A.802.802 0 0 1 10 2a.802.802 0 0 1 0 1.602zm0 0"/>
    <path d="M0 0v24h24V0zm.8.8h22.4v4H.8zm22.4 22.4H.8V5.601h22.4zm0 0"/>
    <path d="M4.832 13.836c.211 1.46 1.527 2.562 3.063 2.562h8.207c1.648 0 3.039-1.293 3.097-2.89a3.022 3.022 0 0 0-1.156-2.473c-.023-.02-.043-.066-.043-.117v-.398c0-1.895-1.422-3.52-3.234-3.7a3.574 3.574 0 0 0-3.153 1.313.16.16 0 0 1-.21.023 3.198 3.198 0 0 0-5 2.594 3.007 3.007 0 0 0-1.571 3.086zm2.133-2.469l.262-.14-.02-.286c-.004-.046-.008-.093-.008-.14a2.406 2.406 0 0 1 2.403-2.403c.484 0 .949.145 1.347.418a.96.96 0 0 0 1.281-.18 2.799 2.799 0 0 1 2.454-1.023c1.41.14 2.515 1.418 2.515 2.907v.398c0 .3.13.574.356.75.562.441.87 1.102.843 1.812-.043 1.168-1.07 2.122-2.296 2.122H7.895c-1.141 0-2.118-.809-2.27-1.88a2.206 2.206 0 0 1 1.34-2.355zm0 0"/>
</svg>
